!!!!SEGMENT: pl-gd--ee-1638--007-012_marenzio-luca--il-terzo-libro-de-madrigalia-a-sei-voci-posso-cor-mio.krn
!!!cenid: 15xx:853
!!!COM: Marenzio, Luca
!!!COM-rismID: pe30003955
!!!CDT: ~1553-1599/08/22
!!!CNT: Italian
!!!GTL: Il Terzo Libro de madrigalia a sei voci
!!!OTL: Posso cor mio
!!!OMV: 012
!!!PDT: 1585
!!!AGN:
!!!SMS-siglum: PL-GD
!!!SMS-shelfmark: Ee 1638
!!!SMS-variant:
!!!SMS-altvar:
!!!SMS-shelfwork: 007-012 G
!!!NIFC-rismSourceID: 990039250
!!!NIFC-islandoraID: pl-gd:57883
!!!URL-pdf-islandora: https://repozytorium.nifc.pl/islandora/object/pl-gd%3A57883/datastream/PDF/view
!!!URL-scan: https://polish.musicsources.pl/pl/lokalizacje/galeria/klocki-introligatorskie/655 @EN{Scan on Polish Music Sources Website} @PL{Skany w portalu Dziedzictwo Muzyki Polskiej w otwartym dostępie}
!!!ONB-nifc: UWAGA: zbiór na stronach: Canto: s. 694-704, Alto: s. 542-552, Tenore: s. 390-400, Basso: s. 237-248, Quinto: s. 85-96, Sesto: s. 3-14. Uwaga: utwory podzielone wg tytułów w spisach treści dostępnych na końcu każdej księgi głosowej.
!!!AIN: 1 alto 1 bass 1 quinto 1 sesto 1 soprn 1 tenor
!!!key:
**kern	**text	**kern	**text	**kern	**text	**kern	**text	**kern	**text	**kern	**text
*part6	*part6	*part5	*part5	*part4	*part4	*part3	*part3	*part2	*part2	*part1	*part1
*staff6	*staff6	*staff5	*staff5	*staff4	*staff4	*staff3	*staff3	*staff2	*staff2	*staff1	*staff1
*I"Sesto	*	*I"Quinto	*	*I"Basso	*	*I"Tenore	*	*I"Alto	*	*I"Canto	*
*I'S	*	*I'Q	*	*I'B	*	*I'T	*	*I'A	*	*I'C	*
*Isesto	*	*Iquinto	*	*Ibass	*	*Itenor	*	*Ialto	*	*Isoprn	*
*ICvox	*	*ICvox	*	*ICvox	*	*ICvox	*	*ICvox	*	*ICvox	*
*IG	*	*	*	*	*	*	*	*	*	*	*
*clefC4	*	*clefC4	*	*clefF4	*	*clefC4	*	*clefC3	*	*clefC1	*
*k[b-]	*	*k[b-]	*	*k[b-]	*	*k[b-]	*	*k[b-]	*	*k[b-]	*
*G:	*	*G:	*	*G:	*	*G:	*	*G:	*	*G:	*
*M2/1	*	*M2/1	*	*M2/1	*	*M2/1	*	*M2/1	*	*M2/1	*
*met(C)	*	*met(C)	*	*met(C)	*	*met(C)	*	*met(C)	*	*met(C)	*
=1-	=1-	=1-	=1-	=1-	=1-	=1-	=1-	=1-	=1-	=1-	=1-
!	!	!	!	!	!	!	!	!	!	!LO:TX:a:B:t=Prestissimo	!
!LO:TX:b:t=Poſſo cor mio	!	!	!	!	!	!LO:TX:b:t=Poſſo cor mio	!	!	!	!	!
0r	.	2r	.	1G	Poſ-	0r	.	1d	Poſ-	2r	.
.	.	2B-\	Poſ-	.	.	.	.	.	.	2g/	Poſ-
.	.	2A\	-ſo	2D/	-ſo	.	.	2d\	-ſo	2f#X/	-ſo
.	.	4B-\	cor	4G\	cor	.	.	4d\	cor	4g\	cor
.	.	2c\	mio	2F\	mio	.	.	2f\	mio	2a\	mio
=2-	=2-	=2-	=2-	=2-	=2-	=2-	=2-	=2-	=2-	=2-	=2-
0r	.	.	.	.	.	1r	.	.	.	.	.
.	.	4F/	pa-	4D/	par-	.	.	4f\	por-	4b-\	par-
.	.	4G/	-rti-	2C/	-ti-	.	.	2e-X\	-ti-	2cc\	-ti-
.	.	4A/	.	.	.	.	.	.	.	.	.
.	.	4.B-\	-re	1BB-	-re	4r	.	4d\	-re	4fny/	-re
.	.	.	.	.	.	4.B-\	Sen-	4.f\	sen-	4.b-\	sen-
.	.	8c\	.	.	.	.	.	.	.	.	.
.	.	2d\	.	.	.	.	.	.	.	.	.
.	.	.	.	.	.	8B-\	-za	8f\	-za	8b-\	-za
.	.	.	.	.	.	4B-\	fa-	4d\	fa-	4dd\	fa-
=3-	=3-	=3-	=3-	=3-	=3-	=3-	=3-	=3-	=3-	=3-	=3-
1r	.	1r	.	1r	.	4c\	-rui	4eny\	-rui	4cc\	-rui
.	.	.	.	.	.	4G/	mo-	4g\	mo-	4b-\	mo-
.	.	.	.	.	.	2d\	-ri-	2f#X\	-ri-	2a\	-ri-
!	!	!	!	!	!	!	!	!LO:SIC:v:t=custos f	!	!	!
4r	.	4r	.	2r	.	2G/	-re	1g	-re	4g/	-re
!	!	!	!	!	!	!	!	!LO:LB:g=original	!	!LO:SIC:v:t=custos cc	!
4G/	Ch'A-	4d\	Ch'A-	.	.	.	.	.	.	4bn\	Ch'a-
!	!	!	!	!	!	!	!	!	!	!LO:LB:g=original	!
2c\	-mor	2e\	-mor	4r	.	4r	.	.	.	2cc\	-mor
.	.	.	.	4C/	Ch'A-	4G/	Ch'A-	.	.	.	.
=4-	=4-	=4-	=4-	=4-	=4-	=4-	=4-	=4-	=4-	=4-	=4-
!	!	!	!	!	!	!LO:SIC:v:t=custos F	!	!	!	!	!
4r	.	4r	.	1F	-mor	1A	-mor	4r	.	4r	.
!	!	!	!	!	!	!LO:LB:g=original	!	!	!	!	!
!	!	!LO:SIC:v:t=custos A	!	!	!	!	!	!	!	!	!
*	*ij	*	*ij	*	*	*	*	*	*	*	*
4F/	Ch'a-	4c\	Ch'a-	.	.	.	.	4fny\	Ch'A-	4a\	Ch'A-
!	!	!LO:LB:g=original	!	!	!	!	!	!	!	!	!
2c\	-mor	2A/	-mor	.	.	.	.	2f\	-mor	2cc\	-mor
*	*Xij	*	*Xij	*	*	*	*	*	*	*	*
2B-\	giuſ-	2d\	giuſ-	2BB-/	giuſ-	2F/	giuſ-	2f\	giuſ-	2dd\	giuſ-
4B-\	-to	4d\	-to	4BB-/	-to	4F/	-to	4f\	-to	4dd\	-to
!LO:SIC:v:t=custos d	!	!	!	!	!	!	!	!	!	!	!
4B-\	ſi-	4d\	ſi-	4BB-/	ſi-	4F/	ſi-	4f\	ſi-	4dd\	ſi-
!LO:LB:g=original	!	!	!	!	!	!	!	!	!	!	!
=5-	=5-	=5-	=5-	=5-	=5-	=5-	=5-	=5-	=5-	=5-	=5-
!	!	!	!	!LO:SIC:v:t=custos BB	!	!	!	!	!	!	!
1d	-gno-	2B-\	-gno-	1BB-	-gno-	1F	-gno-	1f	-gno-	1dd	-gno-
!	!	!	!	!LO:LB:g=original	!	!	!	!	!	!	!
.	.	2B-\	-re	.	.	.	.	.	.	.	.
2d\	-re	4r	.	4BB-/	-re	2B-\	-re	4f\	-re	4b\	-re
.	.	4d\	Vuol	4B-\	Vuol	.	.	4f\	Vuol	4dd\	Vuol
2r	.	4.e\	che	4.A\	che	2r	.	4a\	che	4.cc\	che
.	.	.	.	.	.	.	.	4A/	ſe	.	.
.	.	8e\	ſe	8G\	ſe	.	.	.	.	8b\	ſe
=6-	=6-	=6-	=6-	=6-	=6-	=6-	=6-	=6-	=6-	=6-	=6-
1r	.	4f\	me-	4F\	me-	1r	.	4c\	me-	4a\	me-
.	.	4d\	-co	4G\	-co	.	.	4g\	-co	4b\	-co
.	.	4.d\	por-	4.D/	por-	.	.	4.f\	por-	4.a\	por-
.	.	8G/	-to il	8E\	-to il	.	.	8e\	-to il	8g/	-t'il
1r	.	4A/	voſ-	4F\	voſ-	1r	.	4d\	voſ-	4f/	voſ-
.	.	4B-\	-tro	4G\	-tro	.	.	4d\	-tro	4d/	-tro
.	.	2G/	co-	2E-X\	co-	.	.	2c/	co-	1g\	co-
=7-	=7-	=7-	=7-	=7-	=7-	=7-	=7-	=7-	=7-	=7-	=7-
!	!	!	!	!	!	!	!	!LO:SIC:v:t=custos d	!	!	!
2r	.	1A	-re	1D	-re	2r	.	1d	-re	.	.
!	!	!	!	!	!	!	!	!LO:LB:g=original	!	!LO:SIC:v:t=custos g	!
4r	.	.	.	.	.	4r	.	.	.	2f#X/	-re
!	!	!	!	!	!	!	!	!	!	!LO:LB:g=original	!
4d\	Con	.	.	.	.	4A/	Con	.	.	.	.
2.d\	voi	4r	.	4G\	Con	2Bn\	voi	1r	.	4r	.
!	!	!LO:SIC:v:t=custos d	!	!	!	!	!	!	!	!	!
.	.	4G/	Con	2G\	voi	.	.	.	.	4g/	Con
!	!	!LO:LB:g=original	!	!	!	!	!	!	!	!	!
.	.	4d\	voi	.	.	4B\	ne	.	.	4.g/	voi
4e\	ne	4c\	ne	4C/	ne	2c\	reſt	.	.	.	.
.	.	.	.	.	.	.	.	.	.	8g/	ne
=8-	=8-	=8-	=8-	=8-	=8-	=8-	=8-	=8-	=8-	=8-	=8-
2.f\	reſt'	2A/	reſt'-	2F\	reſt'-	.	.	0r	.	2a\	reſt'
.	.	.	.	.	.	2A/	il	.	.	.	.
.	.	2F/	-il	2D/	-il	.	.	.	.	2a\	il
4F/	il	.	.	.	.	2d\	mi-	.	.	.	.
1A	mi-	1E	mi-	1AA	mi-	.	.	.	.	1a	mi-
.	.	.	.	.	.	8c#X\	.	.	.	.	.
.	.	.	.	.	.	8Bn\	.	.	.	.	.
.	.	.	.	.	.	2c#X\	.	.	.	.	.
=9-	=9-	=9-	=9-	=9-	=9-	=9-	=9-	=9-	=9-	=9-	=9-
!	!	!	!	!LO:SIC:v:t=custos GG	!	!	!	!	!	!	!
1A	-o	1D	-o	1D	-o	1d	-o	1r	.	1f#X	-o
!	!	!	!	!LO:LB:g=original	!	!	!	!	!	!	!
1G	On-	1D	On-	1GG	On-	1B	On-	1d	On-	1g	On-
=10-	=10-	=10-	=10-	=10-	=10-	=10-	=10-	=10-	=10-	=10-	=10-
!	!	!	!	!	!	!LO:SIC:v:t=custos d	!	!	!	!	!
1G	-de	1D	-de	1GG	-de	1B	-de	1d	-de	1g	-de
!	!	!	!	!	!	!LO:LB:g=original	!	!	!	!	!
2r	.	2r	.	4G\	non	2d\	on-	1r	.	4b\	non
.	.	.	.	8G\	mo-	.	.	.	.	8b\	mo-
.	.	.	.	8A\	-ri-	.	.	.	.	8cc\	-ri-
4G/	non	4B-\	non	2B-\	-rem	2d\	-de	.	.	2dd\	-rem
8G/	mo-	8B-\	mo-	.	.	.	.	.	.	.	.
8A/	-ri-	8c\	-ri-	.	.	.	.	.	.	.	.
=11-	=11-	=11-	=11-	=11-	=11-	=11-	=11-	=11-	=11-	=11-	=11-
2B-\	-rem	2d\	-rem	4G\	non	1r	.	1r	.	4b\	non
.	.	.	.	8G\	mo-	.	.	.	.	8b\	mo-
.	.	.	.	8A\	-ri-	.	.	.	.	8cc\	-ri-
!LO:SIC:v:t=custos G	!	!	!	!	!	!	!	!	!	!	!
*	*ij	*	*ij	*	*	*	*	*	*	*	*
4G/	non	4B-\	non	2B-\	-rem	.	.	.	.	2dd\	-rem
!LO:LB:g=original	!	!	!	!	!	!	!	!	!	!	!
8G/	mo-	8B-\	mo-	.	.	.	.	.	.	.	.
8A/	-ri-	8c\	-ri-	.	.	.	.	.	.	.	.
2B-\	-rem	2d\	-rem	1BB-	On-	4f\	non	4d\	non	1b	On-
*	*Xij	*	*Xij	*	*	*	*	*	*	*	*
.	.	.	.	.	.	8f\	mo-	8d\	mo-	.	.
.	.	.	.	.	.	8e\	-ri-	8e\	-ri-	.	.
4B-\	non	4d\	non	.	.	2d\	-rem	2f\	-rem	.	.
8B-\	mo-	8d\	mo-	.	.	.	.	.	.	.	.
8c\	-ri-	8e\	-ri-	.	.	.	.	.	.	.	.
=12-	=12-	=12-	=12-	=12-	=12-	=12-	=12-	=12-	=12-	=12-	=12-
!	!	!	!	!	!	!	!	!	!	!LO:SIC:v:t=custos a	!
*	*	*	*	*	*	*	*ij	*	*ij	*	*
2d\	-rem	2f\	-rem	1BB-	-de	4B\	non	4d\	non	1b	-de
!	!	!	!	!	!	!	!	!	!	!LO:LB:g=original	!
.	.	.	.	.	.	8B\	mo-	8d\	mo-	.	.
.	.	.	.	.	.	8cny\	-ri-	8e\	-ri-	.	.
!	!	!LO:SIC:v:t=custos d	!	!	!	!	!	!	!	!	!
*	*ij	*	*ij	*	*	*	*	*	*	*	*
4B-\	non	4d\	non	.	.	2d\	-rem	2f\	-rem	.	.
!	!	!LO:LB:g=original	!	!	!	!	!	!	!	!	!
*	*	*	*	*	*	*	*Xij	*	*Xij	*	*
8B-\	mo-	8d\	mo-	.	.	.	.	.	.	.	.
8B-\	-ri-	8e\	-ri-	.	.	.	.	.	.	.	.
0c	-rem	1f	-rem	4F\	non	2r	.	2r	.	4a\	non
*	*Xij	*	*Xij	*	*	*	*	*	*	*	*
.	.	.	.	8F\	mo-	.	.	.	.	8a\	mo-
.	.	.	.	8G\	-ri-	.	.	.	.	8b\	-ri-
.	.	.	.	2A\	-rem	4F/	non	4A/	non	2cc\	-rem
.	.	.	.	.	.	8F/	mo-	8A/	mo-	.	.
.	.	.	.	.	.	8G/	-ri-	8B-/	-ri-	.	.
=13-	=13-	=13-	=13-	=13-	=13-	=13-	=13-	=13-	=13-	=13-	=13-
.	.	1r	.	4F\	non	2A/	-rem	2c/	-rem	4a\	non
.	.	.	.	8F\	mo-	.	.	.	.	8a\	mo-
!	!	!	!	!LO:SIC:v:t=custos A	!	!	!	!	!	!	!
.	.	.	.	8G\	-ri-	.	.	.	.	8b\	-ri-
!	!	!	!	!LO:LB:g=original	!	!	!	!	!	!	!
*	*	*	*	*	*	*	*ij	*	*ij	*	*
.	.	.	.	2A\	-rem	4F/	non	4A/	non	1cc	-rem
.	.	.	.	.	.	8F/	mo-	8A/	mo-	.	.
.	.	.	.	.	.	8G/	-ri-	8B-/	-ri-	.	.
1c	ne	2r	.	2F\	ne	2A/	-rem	2c/	-rem	.	.
*	*	*	*	*	*	*	*Xij	*	*Xij	*	*
.	.	2c\	ne	1F\	voi	4r	.	2f\	ne	2a\	ne
.	.	.	.	.	.	4F/	ne	.	.	.	.
=14-	=14-	=14-	=14-	=14-	=14-	=14-	=14-	=14-	=14-	=14-	=14-
!	!	!	!	!	!	!	!	!LO:SIC:v:t=custos e	!	!	!
2F/	voi	2.c\	voi	.	.	4A/	voi	2f\	voi	2a\	voi
!	!	!	!	!	!	!	!	!LO:LB:g=original	!	!	!
!	!	!	!	!	!	!LO:SIC:v:t=custos c	!	!	!	!	!
.	.	.	.	.	.	4B\	ned'	.	.	.	.
!	!	!	!	!	!	!LO:LB:g=original	!	!	!	!	!
2.G/	n'ed-	.	.	2C/	ned	1c	i-	2e\	ned'	2g/	ned'
.	.	4G/	ne-	.	.	.	.	.	.	.	.
.	.	2.G/	-d'i-	0GG	io	.	.	0d	io	0g	io
8F/	.	.	.	.	.	.	.	.	.	.	.
8E/	.	.	.	.	.	.	.	.	.	.	.
2D/	.	.	.	.	.	4Bn\	.	.	.	.	.
.	.	8F/	.	.	.	4A/	.	.	.	.	.
.	.	8E/	.	.	.	.	.	.	.	.	.
=15-	=15-	=15-	=15-	=15-	=15-	=15-	=15-	=15-	=15-	=15-	=15-
1G	-io	1D	.	.	.	1Bn	.	.	.	.	.
1G	.	1C	-o	1C	.	1c	-o	1e	.	1g	.
=16-	=16-	=16-	=16-	=16-	=16-	=16-	=16-	=16-	=16-	=16-	=16-
2r	.	0r	.	1G	Poſ-	0r	.	2r	.	2r	.
!LO:SIC:v:t=custos a	!	!	!	!	!	!	!	!	!	!	!
2B-\	Poſ-	.	.	.	.	.	.	2d\	Poſ-	2g/	Poſ-
!LO:LB:g=original	!	!	!	!	!	!	!	!	!	!	!
2A/	-ſo	.	.	2D/	-ſo	.	.	2d\	-ſo	2f#X/	-ſo
4B-\	dun-	.	.	4G\	dun-	.	.	4d\	dun-	4g/	dun-
2c\	-que	.	.	2F\	-que	.	.	2f\	-que	2a\	-que
=17-	=17-	=17-	=17-	=17-	=17-	=17-	=17-	=17-	=17-	=17-	=17-
.	.	1r	.	.	.	0r	.	.	.	.	.
4F/	par-	.	.	4D/	par-	.	.	4f\	par-	4b\	par-
4G/	-ti-	.	.	2C/	-ti-	.	.	2e-X\	-ti-	2cc\	-ti-
4A/	.	.	.	.	.	.	.	.	.	.	.
!	!	!	!	!	!	!	!	!	!	!LO:SIC:v:t=custos b	!
4.B-\	-re	4r	.	1BB-	-re	.	.	4d\	-re	4fny/	-re
!	!	!	!	!	!	!	!	!	!	!LO:LB:g=original	!
.	.	4.B-\	Sen-	.	.	.	.	4.f\	Sen-	4.b\	Sen-
8c\	.	.	.	.	.	.	.	.	.	.	.
2d\	.	.	.	.	.	.	.	.	.	.	.
.	.	8B-\	-za	.	.	.	.	8f\	-za	8b\	-za
.	.	4B-\	fa-	.	.	.	.	4d\	fa-	4dd\	fa-
=18-	=18-	=18-	=18-	=18-	=18-	=18-	=18-	=18-	=18-	=18-	=18-
0r	.	4c\	-rui	1r	.	1r	.	4eny\	-rui	4cc\	-rui
.	.	4G/	mo-	.	.	.	.	4g\	mo-	4b\	mo-
.	.	2d\	-ri-	.	.	.	.	2f#X\	-ri-	2a\	-ri-
!	!	!LO:SIC:v:t=custos b	!	!	!	!	!	!	!	!	!
.	.	1G	-re	2r	.	2r	.	1g	-re	1g	-re
!	!	!LO:LB:g=original	!	!	!	!	!	!	!	!	!
.	.	.	.	1G\	Poſ-	1d\	Poſ-	.	.	.	.
=19-	=19-	=19-	=19-	=19-	=19-	=19-	=19-	=19-	=19-	=19-	=19-
!	!	!	!	!	!	!	!	!LO:SIC:v:t=custos f	!	!	!
0r	.	2B-\	Poſ-	.	.	.	.	0r	.	2g/	Poſ-
!	!	!	!	!	!	!	!	!LO:LB:g=original	!	!	!
.	.	2A/	-ſo	2D/	-ſo	2d\	-ſo	.	.	2f#X/	-ſo
.	.	4B-\	dun-	4G\	dun-	4d\	dun-	.	.	4g/	dun-
.	.	2c\	-que	2F\	-que	2f\	-que	.	.	2a\	-que
.	.	4F/	par-	4D/	par-	4f\	par-	.	.	4b\	par-
=20-	=20-	=20-	=20-	=20-	=20-	=20-	=20-	=20-	=20-	=20-	=20-
!	!	!	!	!LO:SIC:v:t=custos BB	!	!	!	!	!	!	!
0r	.	4G/	-ti-	2C/	-ti-	2e-X\	-ti-	2r	.	2cc\	-ti-
!	!	!	!	!LO:LB:g=original	!	!	!	!	!	!	!
.	.	4A/	.	.	.	.	.	.	.	.	.
.	.	4B-\	-re	4BB-/	-re	4d\	-re	4r	.	2fny/	-re
.	.	4.c\	Sen-	4.F\	Sen-	4.A/	Sen-	4.fny\	Sen-	.	.
.	.	.	.	.	.	.	.	.	.	1r	.
.	.	8c\	-za	8F\	-za	8A/	-za	8f\	-za	.	.
.	.	4A/	fa-	4F\	fa-	4c\	fa-	4a\	fa-	.	.
.	.	4d\	-rui	4G\	-rui	4B\	-rui	4g\	-rui	.	.
.	.	4d\	mo-	4D\	mo-	4A/	mo-	4f\	mo-	.	.
=21-	=21-	=21-	=21-	=21-	=21-	=21-	=21-	=21-	=21-	=21-	=21-
2r	.	2c#X\	-ri-	2A\	-ri-	2A/	-ri-	2e\	-ri-	2r	.
!	!	!	!	!	!	!LO:SIC:v:t=custos b	!	!	!	!	!
4r	.	4d\	-re	4D/	-re	4A/	-re	4d\	-re	4r	.
!	!	!	!	!	!	!LO:LB:g=original	!	!	!	!	!
4.F/	Sen-	4.d\	Sen-	4.BB-/	sen-	4.B\	sen-	4.f\	sen-	4.b\	Sen-
8F/	-za	8d\	-za	8BB-/	-za	8B\	-za	8f\	-za	8b\	-za
4F/	fa-	4B-\	fa-	4BB-/	fa-	4f\	fa-	4d\	fa-	4dd\	fa-
4E/	-rui	4G/	-rui	4C/	-rui	4c\	-rui	4e\	-rui	4cc\	-rui
4D/	mo-	4G/	mo-	4GG/	mo-	4d\	mo-	2g\	mo-	4b\	mo-
=22-	=22-	=22-	=22-	=22-	=22-	=22-	=22-	=22-	=22-	=22-	=22-
1D	-ri-	1A	-ri-	1D	-ri-	1d	-ri-	.	.	1a	-ri-
.	.	.	.	.	.	.	.	8f#X\	.	.	.
.	.	.	.	.	.	.	.	8e\	.	.	.
.	.	.	.	.	.	.	.	2f#X\	-ri-	.	.
00D	-re.	00G	-re.	00GG	-re.	00d	-re.	00g	-re.	00bn	-re
=23-	=23-	=23-	=23-	=23-	=23-	=23-	=23-	=23-	=23-	=23-	=23-
.	.	.	.	.	.	.	.	.	.	.	.
=24-	=24-	=24-	=24-	=24-	=24-	=24-	=24-	=24-	=24-	=24-	=24-
.	.	.	.	.	.	.	.	.	.	.	.
1r	.	1r	.	1r	.	1r	.	1r	.	1r	.
=-	=-	=-	=-	=-	=-	=-	=-	=-	=-	=-	=-
*-	*-	*-	*-	*-	*-	*-	*-	*-	*-	*-	*-
!!!system-decoration: s1,s2,s3,s4,s5,s6
!!!ENC: Andrzej Gręziak
!!!END: 2022-06-13
!!!ENC: Julita Ruszuk
!!!END: 2022-07-27
!!!YEC: Copyright 2022 Narodowy Instytut Fryderyka Chopina (https://polishscores.org)
!!!YEM: Licence CC BY 4.0 (https://creativecommons.org/licenses/by/4.0)
